!!!OTL: MARIA WOLLT IN DEN GARTEN GEHN
!!!ARE: Europa, Mitteleuropa, Deutschland, Hessen, Ober - Lahnstein; Nieder -
!!    Lahnstein; Taunus, Wuerges
!!!SCT: E1192
!!!YEM: Copyright 1995, estate of Helmut Schaffrath.
**kern
*ICvox
*Ivox
*M2/4
*k[b-]
*F:
{8c
=1
8f
8c
8f
8g
=2
8a
8g
8f
8r}
=3
{4cc
8bn
8bn
=4
8a
8g
8r}
{8c
=5
8f
8c
8f
8g
=6
8a
8g
8f
8r}
=7
{4cc
8bn
8bn
=8
8a
8g
8r}
{16f
16a
=9
8cc
8a
8cc
8a
=10
8dd
8dd
8dd}
{16g
16a
=11
8b-
8g
8b-
8g
=12
4cc
8cc
8r}
=13
{8f
8a
8cc
8a
=14
8g
8f
8r}
==
!!!AGN: Ansinge -, Brauchtums - Lied, Kirchen - Fest, Silvester, Namenstag, und Taufe Jesu
!!!ONB: ESAC (Essen Associative Code) Database: ERK3
!!!AMT: simple duple
!!!AIN: vox
!!!EED: Helmut Schaffrath
!!!EEV: 1.0
*-
